packages/icons/src/text-align-left.svg

<svg width="15" height="15" viewBox="0 0 15 15" fill="none" xmlns="http://www.w3.org/2000/svg">
  <path
    fill-rule="evenodd"
    clip-rule="evenodd"
    d="M2 4.5C2 4.22386 2.22386 4 2.5 4H12.5C12.7761 4 13 4.22386 13 4.5C13 4.77614 12.7761 5 12.5 5H2.5C2.22386 5 2 4.77614 2 4.5ZM2 7.5C2 7.22386 2.22386 7 2.5 7H7.5C7.77614 7 8 7.22386 8 7.5C8 7.77614 7.77614 8 7.5 8H2.5C2.22386 8 2 7.77614 2 7.5ZM2 10.5C2 10.2239 2.22386 10 2.5 10H10.5C10.7761 10 11 10.2239 11 10.5C11 10.7761 10.7761 11 10.5 11H2.5C2.22386 11 2 10.7761 2 10.5Z"
    fill="currentColor"
  />
</svg>

<svg xmlns="http://www.w3.org/2000/svg" width="15" height="15" fill="none"><path fill="currentColor" fill-rule="evenodd" d="M2 4.5a.5.5 0 0 1 .5-.5h10a.5.5 0 0 1 0 1h-10a.5.5 0 0 1-.5-.5m0 3a.5.5 0 0 1 .5-.5h5a.5.5 0 0 1 0 1h-5a.5.5 0 0 1-.5-.5m0 3a.5.5 0 0 1 .5-.5h8a.5.5 0 0 1 0 1h-8a.5.5 0 0 1-.5-.5" clip-rule="evenodd"/></svg>
